X: 30312
T: Old Man Quinn
R: hornpipe
M: 4/4
K: Dmajor
|:AG|FDFA dfed|cdec ABAG|(3FED FA dfed|c2A2 A2AG|
(3FED FA dfed|cdec ABAA|(3Bcd AB GF (3EFG|F2D2 D2:|
|:(3gag|fdfg af (3def|edef gece|dcBA dfed|cdBc A2dc|
(3BcB (3ABA ~G3A|(3Bcd (3ABA ~F3A|(3Bcd AB GF (3EFG|F2D2 D2:|
|:AG|(3FGF (3EFE DFAd|(3cBA Ac Aceg|~f3d gfed|(3cdc (3BcB A2dc|
(3BcB (3ABA ~G3A|(3Bcd (3ABA ~F3A|(3Bcd AB GF (3EFG|F2D2 D2:|

